X:308
T:Gaining the Moment
R:Reel
C:© Paul Gitlitz 2011
M:C|
K:Bm
"Bm"F2B2 dcB2|"F#m"A2c2"A"edc2|"D"d2f2 e2d2|"F#m"c2B2A2G2|!
"Bm"F2B2 dcB2|"F#m"A2c2"A"edc2|"D"d2f2 e2d2|1"F#m"c2A2"A"E4:|2"F#m"c2A2"A7"B2c2|!
|:"D"d2dc dAFA|"Em"d2dc defe|"D/F#"d2dc dAFD|"G"GDFD "A"EDCD|!
"D"d3c dAFA|"Em"dcde "D/F#"fga2|"G"gbag "D"fedc|1"Bm"B2d2"A"c2e2:| 2"Bm"B2d2"F#m"cBA2|]
